X:318
T: Drei Schwestern vor der Himmelstr (61a), S. 187f
N: T0207
O: Luxemburg
S: Singendes Volk, Esch-Alzette 1937 posth.]
N: Echternach, fff Maas, 1922
R: Liebeslieder]
M: 6/8
L: 1/16
K: D
D2 | D4EEF2F2D2 | F2F2G2A4
A2 | B4AAd2d2d2 | d2d2e2d2c2
B2 | A2A2F2A4B2 | G4E2F4
F2 | F2F2G2A4B2 | G4E2F4

@@@ Tune index: 8372
